X: 1
T: Catch If You Can
C: J.Erickson
O: 2015
R: jig
Z: 2015 John Chambers <jc:trillian.mit.edu>
N: Chords from copy from Ishmael the Fiddler 2018-2-18
M: 6/8
L: 1/8
K: Bm
|:\
"Bm"F2B B2c | B2A F2E | F2B Bcd | "A"c3 d2c |\
"Bm"B2c B2A | "Em"FE2 D2E | "Bm"F2B "A"B2A |1 "Bm"B3 B2A :|2 "Bm"B3 "A"c3 ||
"Bm"d2c d2f | ed2 "A"c2B | "F#m"A2B AGF | "Em"E3 D2E |\
"Bm"F2B B2c | B2A F2A | Bcd "Em"efg | "F#m"f3 f2e ||
"Bm"d2c d2f | ed2 "A"c2B | "D"A2B AGF | "A"E3 D2E |\
"Bm"F2B B2c | "A"B2A "F#m"F2E | "Bm"F2B "A"BA2 | "Bm"B3- B3 |]
